img/tap-here.svg

<svg fill="none" height="75" viewBox="0 0 451 75" width="451" xmlns="http://www.w3.org/2000/svg" xmlns:xlink="http://www.w3.org/1999/xlink"><clipPath id="a"><path d="m0 0h451v75h-451z"/></clipPath><g clip-path="url(#a)" fill="#000"><path d="m398.248 24.6276c-.126-.3303-.362-.9121-.583-1.494-1.621-4.4506-.173-7.6903 4.282-9.1372 7.525-2.4533 15.16-4.60784 23.078-5.29981 5.73-.50325 11.508-.75488 17.27-.69197 1.999.01572 4.187.97504 5.934 2.07588 3.464 2.186 3.7 7.077.63 9.0585-.756.4876-1.873.692-2.786.5976-8.454-.9121-16.797-.2359-25.094 1.4626-3.557.7234-7.131 1.3682-10.689 2.1074-1.227.2516-2.471.5347-3.605 1.0536-1.763.7864-2.015 1.7929-1.149 3.6014 2.566 5.3628 2.566 5.3785 8.942 4.9382 2.755-.1887 5.51-.4089 8.249-.7077 3.762-.4089 5.651.975 6.281 4.6708.535 3.1453-1.37 6.1019-4.486 6.8096-1.465.3302-2.976.5347-4.471.6605-4.251.3302-8.501.5976-12.767.8807-2.409.1572-3.07.7077-3.621 3.0195-.079.3617-.126.7391-.173 1.1166-.661 5.4571-.032 6.3378 5.384 6.0861 5.887-.2673 11.743-.8964 17.615-1.3682.504-.0471 1.008-.0786 1.512-.0786 2.093 0 4.344-.5662 5.368 2.2017.96 2.6106.456 5.064-1.559 7.1399-1.275 1.321-2.676 1.9973-4.518 2.3904-8.422 1.8086-16.986 1.8086-25.502 1.9501-6.549.1101-9.32-3.1138-9.21-9.6561.063-3.7586.457-7.5173.583-11.2759.063-1.7457.094-3.5385-.283-5.2213-.677-3.0195-.126-5.5986 1.605-8.1463.945-1.3997 1.386-3.1611 2.047-4.7652.472-1.148.976-2.2646 1.716-3.9788z"/><path d="m38.4111 22.064c-.2204 7.2027-.4093 14.4527-.6769 21.7026-.0945 2.7522-.3621 5.5043-.5825 8.2565-.4408 5.4256.0787 10.7727 1.0862 16.1197.7714 4.0889-.3306 5.6616-4.1087 6.7152-1.8261.5033-4.2976-.2988-5.4311-2.2489-.976-1.6984-1.9835-3.68-2.0622-5.5672-.2204-5.7559-.0945-11.5275.0787-17.2835.2361-7.7846.6454-15.5535.9288-23.3225.0315-.8492-.2204-1.6984-.3936-2.9565-1.3538.0943-2.5817.0157-3.7151.2988-4.7542 1.148-9.4926 2.3747-14.2153 3.6328-3.62072.9593-6.56452-.0944-8.2332-3.3183-2.47153-4.7966-.913051-8.5553 5.3996-9.3416 5.9663-.7391 11.9011-1.7456 17.8517-2.6735.7399-.1101 1.4326-.4246 2.566-.7863 0-1.65133-.0315-3.3498 0-5.04827.0472-2.40616-.0787-5.17404 2.6919-6.038998 2.6447-.833508 4.5338 1.258128 5.9506 3.145318 1.2436 1.65128 1.9678 3.69574 3.1642 6.039 2.3141-.40889 4.8644-.80206 7.3989-1.28958 6.6589-1.27385 13.2864-2.68924 19.9769-3.83728 2.078-.36172 4.2819-.25163 6.3913.01572 3.243.40889 6.2025 3.94737 6.2025 7.06119.0157 2.5792-.6612 3.4913-3.2429 3.57-12.2947.3617-23.8653 4.6865-35.8924 6.4636-.2203.0157-.4093.2359-1.1334.692z"/><path d="m391.384 24.8c-2.566 2.0759-5.053 3.6328-8.391 3.9002-7.241.5818-14.482 1.3524-21.708 2.1388-2.897.3145-5.683 1.1637-8.013 3.0038-.614.4875-.913 1.3524-1.354 2.0601.772.4876 1.543 1.3525 2.33 1.3682 2.755.0629 5.526-.1415 8.281-.2988 1.873-.11 3.746-.4089 5.635-.4246 3.212-.0314 4.77 1.4311 5.242 4.6394.394 2.6577-1.165 5.5514-3.762 6.1805-3.023.7391-6.155 1.0537-9.241 1.6041-2.707.4875-5.447.8807-8.091 1.5884-2.566.692-3.464 2.6735-3.117 5.9604.252 2.4218 1.511 3.6485 4.219 3.9631 5.462.6133 10.767-.346 15.978-1.8558.598-.173 1.165-.4875 1.763-.6448 1.732-.4718 3.479-1.9501 5.195 0 1.464 1.667 1.842 5.1269.835 7.1084-1.055 2.0759-2.503 3.6486-4.786 4.5293-7.446 2.8308-15.16 3.6643-22.968 2.5792-7.116-.9751-12.106-7.6589-11.681-14.7988.425-6.9983 2.015-13.918 1.244-20.9792-.063-.5819.11-1.3053.425-1.8085 3.133-4.9382 5.195-10.6941 11.586-12.8958 9.965-3.4284 20.182-3.7744 30.524-3.1611 1.827.1101 3.621.7392 5.416 1.211 1.668.4403 2.172 1.0694 4.439 5.0325z"/><path d="m122.79 45.9842c-.536 3.9159-.063 7.3915.078 10.8671.079 2.2174.048 4.5292-.488 6.6523-.645 2.5477-3.006 3.8373-5.478 3.6328-2.456-.2201-5.195-2.469-5.494-4.7651-1.102-8.0677-3.086-16.0097-3.274-24.2189-.095-4.3091.299-8.4766 1.527-12.6285 2.141-7.2342 7.147-11.2759 14.309-12.1566 11.634-1.4154 21.551 2.2804 29.155 11.4175 1.102 1.321 1.952 2.9251 2.629 4.5135 1.527 3.6171.661 6.8411-1.936 9.7033-3.983 4.4035-9.194 6.3693-14.782 7.706-5.243 1.2739-10.406.4718-16.246-.7234zm-1.606-9.8448c2.834-1.4469 5.163-1.0694 7.682-.3145 5.368 1.6041 10.406.3145 15.065-2.5792.788-.4875 1.37-1.321 2.141-2.0916-3.101-4.4978-7.587-6.1019-12.263-7.0298-4.234-.8335-8.516-.6134-12.326 1.9186-2.298 1.5255-3.51 3.7901-2.786 6.039.425 1.3682 1.495 2.5163 2.487 4.0575z"/><path d="m78.6168 55.9077c-1.8104.2359-3.054.6291-4.2504.5347-5.2422-.4404-7.7295 2.4848-9.1935 7.014-.8028 2.4848-1.8104 4.9382-3.054 7.2185-1.6687 3.0667-3.4475 3.5857-6.533 2.1388-4.093-1.9186-6.7692-7.2342-2.4873-11.386.8028-.7863 1.59-1.6356 2.1882-2.5791 1.0075-1.6042 1.7316-3.2397 1.0547-5.2999-.4093-1.2424-.2361-2.7207-.1417-4.0732.1417-2.0916 1.1492-3.6171 3.3374-3.9473 2.4558-.3775 3.8253-1.8086 5.1162-3.9002 4.0458-6.6052 8.3749-13.0531 12.5781-19.5639 1.527-2.3747 3.1957-2.6106 5.6515-1.1952 4.4865 2.5634 5.4783 6.9197 6.1709 11.4332.2676 1.7299.0945 3.507.2519 5.2684.1417 1.7142.4565 3.4127.7084 5.2212 1.2751.2202 2.2511.3932 3.2114.5505 2.0937.3459 2.7077 2.0759 3.3059 3.7114.5667 1.5412-.7556 2.2175-1.7002 3.0038-.5824.4875-1.1019 1.0851-1.7631 1.3997-3.479 1.6355-3.4948 4.5292-2.8808 7.6745.4093 2.0917.9917 4.1676 1.1334 6.2749.1102 1.4312-.0945 3.051-.6927 4.3406-1.3223 2.8937-4.2661 3.4913-6.9108 1.6355-2.3928-1.6827-3.7309-4.026-4.1087-6.9039-.3464-2.6893-.6297-5.41-.9918-8.571zm-3.1642-12.3139c3.8883-.3303 4.2347-1.0694 2.4086-4.5135-.8029 1.494-1.4641 2.7364-2.4086 4.5135z"/><path d="m319.3 9.26286c4.014-.01572 7.777 1.06944 11.35 2.64204 2.692 1.1795 4.345 3.6171 4.707 6.4165.173 1.3682-.677 3.161-1.637 4.309-1.118 1.3525-2.771.6448-4.156-.11-4.66-2.5792-9.571-2.8623-14.609-1.3997-6.643 1.9186-7.446 5.1426-2.566 10.0965 2.472 2.5005 4.943 5.001 7.462 7.4543 3.432 3.3655 6.203 7.2343 8.753 11.276 2.534 3.9945 2.597 10.6311-1.747 14.8616-5.258 5.1269-11.65 7.2499-18.561 8.3823-1.952.3145-3.998.2201-5.966.0629-3.983-.3146-6.627-3.3026-6.58-7.2028.047-3.1453 2.456-5.2999 5.462-4.3877 6.644 2.0287 12.059-.6134 17.191-4.2147 2.377-1.6671 2.582-3.0195 1.086-5.4729-1.039-1.6985-2.283-3.3183-3.652-4.7809-3.259-3.4755-6.643-6.841-9.996-10.2537-3.133-3.1767-6.014-6.668-6.612-11.1658-.96-7.2028 1.432-11.4175 7.21-13.7293 2.078-.8335 4.313-1.3368 6.517-1.8086 2.11-.44033 4.235-.6605 6.344-.97504z"/><path d="m215.669 45.7328c-2.944 3.397-5.636 6.3221-8.107 9.4202-2.346 2.9252-4.471 6.0233-6.675 9.0743-1.354 1.8871-3.023 2.988-5.431 2.3118-2.55-.7077-4.723-2.013-5.242-4.7966-.394-2.076-.567-4.2619 1.448-5.8818 4.738-3.7744 8.422-8.5395 12.185-13.226 1.873-2.3433 3.636-4.7809 5.525-7.1242.787-.975 1.716-1.84 2.661-2.6577 1.164-1.0223 2.518-1.1953 3.809-.2674 1.511 1.0851 3.243 2.0445 4.345 3.4756 2.771 3.5542 5.258 7.3128 7.808 11.0243 2.267 3.3026 4.345 6.7152 6.706 9.9392 1.181 1.6041 1.937 3.1768 1.716 5.174-.252 2.2017-1.464 3.8845-3.384 4.6236-1.952.7706-4.093.3303-5.479-1.3996-1.558-1.9344-2.943-4.0418-4.187-6.1963-1.826-3.1453-3.463-6.4007-5.226-9.5775-.63-1.1795-1.417-2.2646-2.472-3.9159z"/></g></svg>

<svg width="451" height="75" viewBox="0 0 451 75" fill="none" xmlns="http://www.w3.org/2000/svg">
<g clip-path="url(#clip0)">
<path d="M398.248 24.6276C398.122 24.2973 397.886 23.7155 397.665 23.1336C396.044 18.683 397.492 15.4433 401.947 13.9964C409.472 11.5431 417.107 9.38856 425.025 8.69659C430.755 8.19334 436.533 7.94171 442.295 8.00462C444.294 8.02034 446.482 8.97966 448.229 10.0805C451.693 12.2665 451.929 17.1575 448.859 19.139C448.103 19.6266 446.986 19.831 446.073 19.7366C437.619 18.8245 429.276 19.5007 420.979 21.1992C417.422 21.9226 413.848 22.5674 410.29 23.3066C409.063 23.5582 407.819 23.8413 406.685 24.3602C404.922 25.1466 404.67 26.1531 405.536 27.9616C408.102 33.3244 408.102 33.3401 414.478 32.8998C417.233 32.7111 419.988 32.4909 422.727 32.1921C426.489 31.7832 428.378 33.1671 429.008 36.8629C429.543 40.0082 427.638 42.9648 424.522 43.6725C423.057 44.0027 421.546 44.2072 420.051 44.333C415.8 44.6632 411.55 44.9306 407.284 45.2137C404.875 45.3709 404.214 45.9214 403.663 48.2332C403.584 48.5949 403.537 48.9723 403.49 49.3498C402.829 54.8069 403.458 55.6876 408.874 55.4359C414.761 55.1686 420.617 54.5395 426.489 54.0677C426.993 54.0206 427.497 53.9891 428.001 53.9891C430.094 53.9891 432.345 53.4229 433.369 56.1908C434.329 58.8014 433.825 61.2548 431.81 63.3307C430.535 64.6517 429.134 65.328 427.292 65.7211C418.87 67.5297 410.306 67.5297 401.79 67.6712C395.241 67.7813 392.47 64.5574 392.58 58.0151C392.643 54.2565 393.037 50.4978 393.163 46.7392C393.226 44.9935 393.257 43.2007 392.88 41.5179C392.203 38.4984 392.754 35.9193 394.485 33.3716C395.43 31.9719 395.871 30.2105 396.532 28.6064C397.004 27.4584 397.508 26.3418 398.248 24.6276Z" fill="black"/>
<path d="M38.4111 22.064C38.1907 29.2667 38.0018 36.5167 37.7342 43.7666C37.6397 46.5188 37.3721 49.2709 37.1517 52.0231C36.7109 57.4487 37.2304 62.7958 38.2379 68.1428C39.0093 72.2317 37.9073 73.8044 34.1292 74.858C32.3031 75.3613 29.8316 74.5592 28.6981 72.6091C27.7221 70.9107 26.7146 68.9291 26.6359 67.0419C26.4155 61.286 26.5414 55.5144 26.7146 49.7584C26.9507 41.9738 27.36 34.2049 27.6434 26.4359C27.6749 25.5867 27.423 24.7375 27.2498 23.4794C25.896 23.5737 24.6681 23.4951 23.5347 23.7782C18.7805 24.9262 14.0421 26.1529 9.3194 27.411C5.69868 28.3703 2.75488 27.3166 1.0862 24.0927C-1.38533 19.2961 0.173149 15.5374 6.4858 14.7511C12.4521 14.012 18.3869 13.0055 24.3375 12.0776C25.0774 11.9675 25.7701 11.653 26.9035 11.2913C26.9035 9.63997 26.872 7.9415 26.9035 6.24303C26.9507 3.83687 26.8248 1.06899 29.5954 0.204032C32.2401 -0.629476 34.1292 1.46216 35.546 3.34935C36.7896 5.00063 37.5138 7.04509 38.7102 9.38835C41.0243 8.97946 43.5746 8.58629 46.1091 8.09877C52.768 6.82492 59.3955 5.40953 66.086 4.26149C68.164 3.89977 70.3679 4.00986 72.4773 4.27721C75.7203 4.6861 78.6798 8.22458 78.6798 11.3384C78.6955 13.9176 78.0186 14.8297 75.4369 14.9084C63.1422 15.2701 51.5716 19.5949 39.5445 21.372C39.3242 21.3877 39.1352 21.6079 38.4111 22.064Z" fill="black"/>
<path d="M391.384 24.8C388.818 26.8759 386.331 28.4328 382.993 28.7002C375.752 29.282 368.511 30.0526 361.285 30.839C358.388 31.1535 355.602 32.0027 353.272 33.8428C352.658 34.3303 352.359 35.1952 351.918 35.9029C352.69 36.3905 353.461 37.2554 354.248 37.2711C357.003 37.334 359.774 37.1296 362.529 36.9723C364.402 36.8623 366.275 36.5634 368.164 36.5477C371.376 36.5163 372.934 37.9788 373.406 41.1871C373.8 43.8448 372.241 46.7385 369.644 47.3676C366.621 48.1067 363.489 48.4213 360.403 48.9717C357.696 49.4592 354.956 49.8524 352.312 50.5601C349.746 51.2521 348.848 53.2336 349.195 56.5205C349.447 58.9423 350.706 60.169 353.414 60.4836C358.876 61.0969 364.181 60.1376 369.392 58.6278C369.99 58.4548 370.557 58.1403 371.155 57.983C372.887 57.5112 374.634 56.0329 376.35 57.983C377.814 59.65 378.192 63.1099 377.185 65.0914C376.13 67.1673 374.682 68.74 372.399 69.6207C364.953 72.4515 357.239 73.285 349.431 72.1999C342.315 71.2248 337.325 64.541 337.75 57.4011C338.175 50.4028 339.765 43.4831 338.994 36.4219C338.931 35.84 339.104 35.1166 339.419 34.6134C342.552 29.6752 344.614 23.9193 351.005 21.7176C360.97 18.2892 371.187 17.9432 381.529 18.5565C383.356 18.6666 385.15 19.2957 386.945 19.7675C388.613 20.2078 389.117 20.8369 391.384 24.8Z" fill="black"/>
<path d="M122.79 45.9842C122.254 49.9001 122.727 53.3757 122.868 56.8513C122.947 59.0687 122.916 61.3805 122.38 63.5036C121.735 66.0513 119.374 67.3409 116.902 67.1364C114.446 66.9163 111.707 64.6674 111.408 62.3713C110.306 54.3036 108.322 46.3616 108.134 38.1524C108.039 33.8433 108.433 29.6758 109.661 25.5239C111.802 18.2897 116.808 14.248 123.97 13.3673C135.604 11.9519 145.521 15.6477 153.125 24.7848C154.227 26.1058 155.077 27.7099 155.754 29.2983C157.281 32.9154 156.415 36.1394 153.818 39.0016C149.835 43.4051 144.624 45.3709 139.036 46.7076C133.793 47.9815 128.63 47.1794 122.79 45.9842ZM121.184 36.1394C124.018 34.6925 126.347 35.07 128.866 35.8249C134.234 37.429 139.272 36.1394 143.931 33.2457C144.719 32.7582 145.301 31.9247 146.072 31.1541C142.971 26.6563 138.485 25.0522 133.809 24.1243C129.575 23.2908 125.293 23.5109 121.483 26.0429C119.185 27.5684 117.973 29.833 118.697 32.0819C119.122 33.4501 120.192 34.5982 121.184 36.1394Z" fill="black"/>
<path d="M78.6168 55.9077C76.8064 56.1436 75.5628 56.5368 74.3664 56.4424C69.1242 56.002 66.6369 58.9272 65.1729 63.4564C64.3701 65.9412 63.3625 68.3946 62.1189 70.6749C60.4502 73.7416 58.6714 74.2606 55.5859 72.8137C51.4929 70.8951 48.8167 65.5795 53.0986 61.4277C53.9014 60.6414 54.6886 59.7921 55.2868 58.8486C56.2943 57.2444 57.0184 55.6089 56.3415 53.5487C55.9322 52.3063 56.1054 50.828 56.1998 49.4755C56.3415 47.3839 57.349 45.8584 59.5372 45.5282C61.993 45.1507 63.3625 43.7196 64.6534 41.628C68.6992 35.0228 73.0283 28.5749 77.2315 22.0641C78.7585 19.6894 80.4272 19.4535 82.883 20.8689C87.3695 23.4323 88.3613 27.7886 89.0539 32.3021C89.3215 34.032 89.1484 35.8091 89.3058 37.5705C89.4475 39.2847 89.7623 40.9832 90.0142 42.7917C91.2893 43.0119 92.2653 43.1849 93.2256 43.3422C95.3193 43.6881 95.9333 45.4181 96.5315 47.0536C97.0982 48.5948 95.7759 49.2711 94.8313 50.0574C94.2489 50.5449 93.7294 51.1425 93.0682 51.4571C89.5892 53.0926 89.5734 55.9863 90.1874 59.1316C90.5967 61.2233 91.1791 63.2992 91.3208 65.4065C91.431 66.8377 91.2263 68.4575 90.6281 69.7471C89.3058 72.6408 86.362 73.2384 83.7173 71.3826C81.3245 69.6999 79.9864 67.3566 79.6086 64.4787C79.2622 61.7894 78.9789 59.0687 78.6168 55.9077ZM75.4526 43.5938C79.3409 43.2635 79.6873 42.5244 77.8612 39.0803C77.0583 40.5743 76.3971 41.8167 75.4526 43.5938Z" fill="black"/>
<path d="M319.3 9.26286C323.314 9.24714 327.077 10.3323 330.65 11.9049C333.342 13.0844 334.995 15.522 335.357 18.3214C335.53 19.6896 334.68 21.4824 333.72 22.6304C332.602 23.9829 330.949 23.2752 329.564 22.5204C324.904 19.9412 319.993 19.6581 314.955 21.1207C308.312 23.0393 307.509 26.2633 312.389 31.2172C314.861 33.7177 317.332 36.2182 319.851 38.6715C323.283 42.037 326.054 45.9058 328.604 49.9475C331.138 53.942 331.201 60.5786 326.857 64.8091C321.599 69.936 315.207 72.059 308.296 73.1914C306.344 73.5059 304.298 73.4115 302.33 73.2543C298.347 72.9397 295.703 69.9517 295.75 66.0515C295.797 62.9062 298.206 60.7516 301.212 61.6638C307.856 63.6925 313.271 61.0504 318.403 57.4491C320.78 55.782 320.985 54.4296 319.489 51.9762C318.45 50.2777 317.206 48.6579 315.837 47.1953C312.578 43.7198 309.194 40.3543 305.841 36.9416C302.708 33.7649 299.827 30.2736 299.229 25.7758C298.269 18.573 300.661 14.3583 306.439 12.0465C308.517 11.213 310.752 10.7097 312.956 10.2379C315.066 9.79757 317.191 9.5774 319.3 9.26286Z" fill="black"/>
<path d="M215.669 45.7328C212.725 49.1298 210.033 52.0549 207.562 55.153C205.216 58.0782 203.091 61.1763 200.887 64.2273C199.533 66.1144 197.864 67.2153 195.456 66.5391C192.906 65.8314 190.733 64.5261 190.214 61.7425C189.82 59.6665 189.647 57.4806 191.662 55.8607C196.4 52.0863 200.084 47.3212 203.847 42.6347C205.72 40.2914 207.483 37.8538 209.372 35.5105C210.159 34.5355 211.088 33.6705 212.033 32.8528C213.197 31.8305 214.551 31.6575 215.842 32.5854C217.353 33.6705 219.085 34.6299 220.187 36.061C222.958 39.6152 225.445 43.3738 227.995 47.0853C230.262 50.3879 232.34 53.8005 234.701 57.0245C235.882 58.6286 236.638 60.2013 236.417 62.1985C236.165 64.4002 234.953 66.083 233.033 66.8221C231.081 67.5927 228.94 67.1524 227.554 65.4225C225.996 63.4881 224.611 61.3807 223.367 59.2262C221.541 56.0809 219.904 52.8255 218.141 49.6487C217.511 48.4692 216.724 47.3841 215.669 45.7328Z" fill="black"/>
</g>
<defs>
<clipPath id="clip0">
<rect width="451" height="75" fill="white"/>
</clipPath>
</defs>
</svg>
